X:751
T:Patricia Wilmot's Reel
C:Johnny Wilmot (Cape Breton)
R:reel
D:Kevin Conneff: The Week before Easter
Z:id:hn-reel-751
M:C|
K:G
G2Bd cAFA|GABd g2fg|ec~c2 dB~B2|cAAB AFDF|
G2Bd cAFA|GABd g2fg|ec~c2 dB~B2|1 cAFA GDEF:|2 cAFA G4||
g2~g2 bgag|ec~c2 efge|dB~B2 gBdB|cAAB AFD2|
g2~g2 bgag|ec~c2 efge|dB~B2 gBdB|cAFA GABd|
g2~g2 bgag|ec~c2 efge|dB~B2 gBdB|cAAB AFDF|
ECCE DB,B,D|GABd g2fg|ec~c2 dB~B2|cAFA GDEF||
